src/components/atoms/Icon/icons/pinterest-large.svg

<?xml version="1.0" encoding="UTF-8"?>
<svg width="36px" height="36px" viewBox="0 0 36 36" version="1.1" xmlns="http://www.w3.org/2000/svg" xmlns:xlink="http://www.w3.org/1999/xlink">
    <!-- Generator: Sketch 53.2 (72643) - https://sketchapp.com -->
    <title>pinterest</title>
    <desc>Created with Sketch.</desc>
    <defs>
        <rect id="path-1" x="0" y="0" width="24" height="24"></rect>
    </defs>
    <g id="pinterest" stroke="none" stroke-width="1" fill="none" fill-rule="evenodd">
        <g id="pinterest-copy" transform="translate(6.000000, 6.000000)">
            <mask id="mask-2" fill="currentColor">
                <use xlink:href="#path-1"></use>
            </mask>
            <g id="Mask" fill-rule="nonzero"></g>
            <path d="M12,7.10542736e-15 C5.37283951,7.10542736e-15 -1.77635684e-15,5.37283951 -1.77635684e-15,12 C-1.77635684e-15,17.0864198 3.16049383,21.4320988 7.62469136,23.1802469 C7.51604938,22.2320988 7.42716049,20.7703704 7.66419753,19.7333333 C7.88148148,18.7950617 9.06666667,13.7679012 9.06666667,13.7679012 C9.06666667,13.7679012 8.71111111,13.0469136 8.71111111,11.9901235 C8.71111111,10.3209877 9.67901235,9.07654321 10.8839506,9.07654321 C11.9111111,9.07654321 12.4049383,9.84691358 12.4049383,10.7654321 C12.4049383,11.7925926 11.7530864,13.3333333 11.4074074,14.7654321 C11.1209877,15.9604938 12.0098765,16.9382716 13.1851852,16.9382716 C15.3185185,16.9382716 16.9580247,14.6864198 16.9580247,11.4469136 C16.9580247,8.57283951 14.8938272,6.56790123 11.9407407,6.56790123 C8.52345679,6.56790123 6.51851852,9.12592593 6.51851852,11.7728395 C6.51851852,12.8 6.91358025,13.9061728 7.40740741,14.508642 C7.50617284,14.6271605 7.51604938,14.7358025 7.48641975,14.854321 C7.39753086,15.2296296 7.19012346,16.0493827 7.15061728,16.217284 C7.10123457,16.4345679 6.97283951,16.4839506 6.74567901,16.3753086 C5.24444444,15.6740741 4.30617284,13.491358 4.30617284,11.7234568 C4.30617284,7.94074074 7.05185185,4.46419753 12.237037,4.46419753 C16.3950617,4.46419753 19.6345679,7.42716049 19.6345679,11.3975309 C19.6345679,15.5358025 17.0271605,18.8641975 13.4123457,18.8641975 C12.1975309,18.8641975 11.0518519,18.2320988 10.6666667,17.4814815 C10.6666667,17.4814815 10.0641975,19.7728395 9.91604938,20.3358025 C9.64938272,21.382716 8.91851852,22.6864198 8.42469136,23.4864198 C9.55061728,23.8320988 10.7358025,24.0197531 11.9802469,24.0197531 C18.6074074,24.0197531 23.9802469,18.6469136 23.9802469,12.0197531 C24,5.37283951 18.6271605,7.10542736e-15 12,7.10542736e-15 Z" id="Path" fill="currentColor" fill-rule="nonzero" mask="url(#mask-2)"></path>
        </g>
    </g>
</svg>

<svg width="36" height="36" xmlns="http://www.w3.org/2000/svg" xmlns:xlink="http://www.w3.org/1999/xlink"><defs><path id="pinterest-large-a" d="M0 0h24v24H0z"/></defs><g transform="translate(6 6)" fill="none" fill-rule="evenodd"><mask id="pinterest-large-b" fill="currentColor"><use xlink:href="#pinterest-large-a"/></mask><path d="M12 0C5.373 0 0 5.373 0 12c0 5.086 3.16 9.432 7.625 11.18-.109-.948-.198-2.41.04-3.447.216-.938 1.402-5.965 1.402-5.965s-.356-.721-.356-1.778c0-1.669.968-2.913 2.173-2.913 1.027 0 1.52.77 1.52 1.688 0 1.028-.65 2.568-.997 4-.286 1.195.603 2.173 1.778 2.173 2.134 0 3.773-2.252 3.773-5.491 0-2.874-2.064-4.88-5.017-4.88-3.418 0-5.422 2.559-5.422 5.206 0 1.027.395 2.133.888 2.736a.357.357 0 0 1 .08.345c-.09.376-.297 1.195-.336 1.363-.05.218-.178.267-.405.158-1.502-.7-2.44-2.884-2.44-4.652 0-3.782 2.746-7.259 7.931-7.259 4.158 0 7.398 2.963 7.398 6.934 0 4.138-2.608 7.466-6.223 7.466-1.214 0-2.36-.632-2.745-1.383l-.751 2.855c-.267 1.047-.997 2.35-1.491 3.15 1.126.346 2.31.534 3.555.534 6.627 0 12-5.373 12-12C24 5.373 18.627 0 12 0z" fill="currentColor" fill-rule="nonzero" mask="url(#pinterest-large-b)"/></g></svg>
